src/topics/icons/nodebots.svg

<svg height="256" preserveAspectRatio="xMidYMid" viewBox="0 0 256 256" width="256" xmlns="http://www.w3.org/2000/svg"><path d="m0 0h256v256h-256z" fill="#f7df1e"/><g fill="#2e2e2c" transform="translate(117.84127 113.371429)"><path d="m102.281464 36.8767277h-85.9168589c-8.81398989 0-15.95825638 7.5620027-15.95825638 16.5579888v45.7360086h117.25928928v-45.7360086c0-8.9959861-6.568963-16.5579888-15.384174-16.5579888zm-69.3674202 37.1626445c-5.8006705 0-10.5020351-4.7990807-10.5020351-10.7182319s4.7013646-10.7194533 10.5020351-10.7194533 10.5008136 4.8003021 10.5008136 10.7194533-4.7001431 10.7182319-10.5008136 10.7182319zm53.7084189 0c-5.7994491 0-10.5020351-4.7990807-10.5020351-10.7182319s4.702586-10.7194533 10.5020351-10.7194533c5.7982275 0 10.5008136 4.8003021 10.5008136 10.7194533s-4.7025861 10.7182319-10.5008136 10.7182319z"/><path d="m22.5988907 103.376181h72.5492995c2.0813524 0 3.7657332 1.721024 3.7657332 3.843906 0 2.124103-1.6843808 3.845127-3.7657332 3.845127h-72.5492995c-2.080131 0-3.7669547-1.721024-3.7669547-3.845127 0-2.12166 1.6868237-3.843906 3.7669547-3.843906z"/><path d="m34.8671438 114.620858h48.6626051c2.0813524 0 3.7669547 1.722246 3.7669547 3.846349s-1.6856023 3.843906-3.7669547 3.843906h-48.6626051c-2.0801309 0-3.7669546-1.719803-3.7669546-3.843906s1.6868237-3.846349 3.7669546-3.846349z"/><path d="m67.8450975 8.06270021c0-4.32393629-3.323568-7.82950046-7.5607813-7.82950046-4.2335489 0-7.354356 3.50556417-7.354356 7.82950046 0 2.68841349 1.2202295 5.05924979 3.6631313 6.46880409v13.3223653c0 2.2828918 1.4303191 4.1321685 3.6643528 4.1321685 2.2364767 0 3.6643528-1.8492767 3.6643528-4.1321685v-13.1000612c2.4429019-1.3729108 3.9233004-3.8512348 3.9233004-6.69110819z"/></g></svg>

<?xml version="1.0" encoding="UTF-8" standalone="no"?>
<svg width="256px" height="256px" viewBox="0 0 256 256" version="1.1" xmlns="http://www.w3.org/2000/svg" xmlns:xlink="http://www.w3.org/1999/xlink" preserveAspectRatio="xMidYMid">
	<g>
		<rect fill="#F7DF1E" x="0" y="0" width="256" height="256"></rect>
		<g transform="translate(117.841270, 113.371429)" fill="#2E2E2C">
			<path d="M102.281464,36.8767277 L16.3646051,36.8767277 C7.55061521,36.8767277 0.406348719,44.4387304 0.406348719,53.4347165 L0.406348719,99.1707251 L117.665638,99.1707251 L117.665638,53.4347165 C117.665638,44.4387304 111.096675,36.8767277 102.281464,36.8767277 L102.281464,36.8767277 Z M32.9140438,74.0393722 C27.1133733,74.0393722 22.4120087,69.2402915 22.4120087,63.3211403 C22.4120087,57.4019891 27.1133733,52.601687 32.9140438,52.601687 C38.7147143,52.601687 43.4148574,57.4019891 43.4148574,63.3211403 C43.4148574,69.2402915 38.7147143,74.0393722 32.9140438,74.0393722 L32.9140438,74.0393722 Z M86.6224627,74.0393722 C80.8230136,74.0393722 76.1204276,69.2402915 76.1204276,63.3211403 C76.1204276,57.4019891 80.8230136,52.601687 86.6224627,52.601687 C92.4206902,52.601687 97.1232763,57.4019891 97.1232763,63.3211403 C97.1232763,69.2402915 92.4206902,74.0393722 86.6224627,74.0393722 L86.6224627,74.0393722 Z"></path>
			<path d="M22.5988907,103.376181 L95.1481902,103.376181 C97.2295426,103.376181 98.9139234,105.097205 98.9139234,107.220087 C98.9139234,109.34419 97.2295426,111.065214 95.1481902,111.065214 L22.5988907,111.065214 C20.5187597,111.065214 18.831936,109.34419 18.831936,107.220087 C18.831936,105.098427 20.5187597,103.376181 22.5988907,103.376181 L22.5988907,103.376181 Z"></path>
			<path d="M34.8671438,114.620858 L83.5297489,114.620858 C85.6111013,114.620858 87.2967036,116.343104 87.2967036,118.467207 C87.2967036,120.59131 85.6111013,122.311113 83.5297489,122.311113 L34.8671438,122.311113 C32.7870129,122.311113 31.1001892,120.59131 31.1001892,118.467207 C31.1001892,116.343104 32.7870129,114.620858 34.8671438,114.620858 L34.8671438,114.620858 Z"></path>
			<path d="M67.8450975,8.06270021 C67.8450975,3.73876392 64.5215295,0.233199746 60.2843162,0.233199746 C56.0507673,0.233199746 52.9299602,3.73876392 52.9299602,8.06270021 C52.9299602,10.7511137 54.1501897,13.12195 56.5930915,14.5315043 L56.5930915,27.8538696 C56.5930915,30.1367614 58.0234106,31.9860381 60.2574443,31.9860381 C62.493921,31.9860381 63.9217971,30.1367614 63.9217971,27.8538696 L63.9217971,14.7538084 C66.364699,13.3808976 67.8450975,10.9025736 67.8450975,8.06270021 L67.8450975,8.06270021 Z"></path>
		</g>
	</g>
</svg>
